src/assets/image/cursor-white.svg

<svg width="41" height="41" viewBox="0 0 41 41" fill="none" xmlns="http://www.w3.org/2000/svg">
<g filter="url(#filter0_d)">
<path d="M15.6467 28.2276C16.1647 28.415 17.5131 28.6603 18.8885 26.9175L22.5878 22.2364L28.5537 22.3876C30.5995 22.4388 31.3315 21.4473 31.587 20.851C31.8425 20.2547 32.0529 19.0398 30.6035 17.5962L16.7279 3.76787C15.4691 2.51773 14.0713 2.29432 13.09 3.05294C12.575 3.44916 11.994 4.26628 12.1418 5.91782L13.8958 25.4288C14.0698 27.3752 15.0699 28.019 15.6467 28.2276V28.2276ZM27.8387 19.2482L21.1072 19.0756L16.9317 24.3578L15.3553 6.80616L27.8387 19.2482V19.2482Z" fill="white"/>
</g>
<defs>
<filter id="filter0_d" x="-4.57764e-05" y="0" width="40.4804" height="40.4737" filterUnits="userSpaceOnUse" color-interpolation-filters="sRGB">
<feFlood flood-opacity="0" result="BackgroundImageFix"/>
<feColorMatrix in="SourceAlpha" type="matrix" values="0 0 0 0 0 0 0 0 0 0 0 0 0 0 0 0 0 0 127 0"/>
<feOffset dy="3"/>
<feGaussianBlur stdDeviation="2.5"/>
<feColorMatrix type="matrix" values="0 0 0 0 0 0 0 0 0 0 0 0 0 0 0 0 0 0 0.25 0"/>
<feBlend mode="normal" in2="BackgroundImageFix" result="effect1_dropShadow"/>
<feBlend mode="normal" in="SourceGraphic" in2="effect1_dropShadow" result="shape"/>
</filter>
</defs>
</svg>

<svg xmlns="http://www.w3.org/2000/svg" width="41" height="41" fill="none"><g filter="url(#A)"><path d="M15.647 28.228c.518.187 1.866.433 3.242-1.3l3.7-4.68 5.966.15c2.046.05 2.778-.94 3.033-1.537s.466-1.81-.983-3.255L16.728 3.768c-1.26-1.25-2.657-1.474-3.638-.715-.515.396-1.096 1.213-.948 2.865l1.754 19.51c.174 1.946 1.174 2.6 1.75 2.8zm12.192-8.98l-6.732-.173-4.175 5.282-1.576-17.552L27.84 19.248z" fill="#fff"/></g><defs><filter id="A" x="0" y="0" width="40.48" height="40.474" filterUnits="userSpaceOnUse" color-interpolation-filters="sRGB"><feFlood flood-opacity="0" result="A"/><feColorMatrix in="SourceAlpha" values="0 0 0 0 0 0 0 0 0 0 0 0 0 0 0 0 0 0 127 0"/><feOffset dy="3"/><feGaussianBlur stdDeviation="2.5"/><feColorMatrix values="0 0 0 0 0 0 0 0 0 0 0 0 0 0 0 0 0 0 0.25 0"/><feBlend in2="A"/><feBlend in="SourceGraphic"/></filter></defs></svg>
